(/Applications/pcbgcode.repo/pcb-gcode.ulp)
(Copyright 2005 - 2012 by John Johnson)
(See readme.txt for licensing terms.)
(This file generated from the board:)
(.../YuSynth_SnH/eagle/yusynth_S_n_H.brd)
(Current profile is .../pcbgcode.repo/profiles/mach.pp  )
(This file generated 1/13/16 10:32 PM)
(Settings from pcb-machine.h)
(spindle on time = 0.0000)
(spindle speed = 20000.0000)
(tool change at 0.0000  0.0000  3.0000  )
(feed rate xy = F0     )
(feed rate z  = F20    )
(Z Axis Settings)
(  High     Up        Down     Drill)
(1.0000  	0.0500  	-0.0040 	-0.0730 )
(Settings from pcb-defaults.h)
(isolate min = 0.0010)
(isolate max = 0.0150)
(isolate step = 0.0015)
(Generated bottom outlines, bottom drill, )
(Unit of measure: inch)
( Tool|       Size       |  Min Sub |  Max Sub |   Count )
( T01 | 0.800mm 0.0315in | 0.0000in | 0.0000in |       0 )
( T02 | 0.813mm 0.0320in | 0.0000in | 0.0000in |       0 )
( T03 | 1.016mm 0.0400in | 0.0000in | 0.0000in |       0 )
( T04 | 1.200mm 0.0472in | 0.0000in | 0.0000in |       0 )
( T05 | 1.300mm 0.0512in | 0.0000in | 0.0000in |       0 )
(Inch Mode)
G20
(Absolute Coordinates)
G90
S20000
G00 Z1.0000  
G00 X0.0000  Y0.0000  
M03
G04 P0.000000
M05
G00 Z3.0000  
M06 T01  ; 0.0315  
G01 Z0.0000  F20    
M06 
G00 Z0.0500  
M03
G04 P0.000000
G82 X-0.8316 Y1.4500  Z-0.0730 F20    R0.0500  P0.010000
G82 X-1.0284 Y1.4500  
G82 X-1.0800 Y1.3000  
G82 X-1.0800 Y1.0500  
G82 X-1.0284 Y2.1800  
G82 X-0.8316 Y2.1800  
M05
G00 Z3.0000  
G00 X0.0000  Y0.0000  
M06 T02  ; 0.0320  
G01 Z0.0000  F20    
M06 
G00 Z0.0500  
M03
G04 P0.000000
G82 X-0.1800 Y0.7500  Z-0.0730 F20    R0.0500  P0.010000
G82 X-0.2300 Y0.9000  
G82 X-0.3300 Y0.9000  
G82 X-0.3800 Y1.0500  
G82 X-0.4800 Y1.0000  
G82 X-0.4800 Y1.1000  
G82 X-0.4800 Y1.2000  
G82 X-0.4800 Y1.3000  
G82 X-0.3800 Y1.4500  
G82 X-0.7800 Y1.3000  
G82 X-0.7800 Y1.2000  
G82 X-0.7800 Y1.1000  
G82 X-0.7800 Y1.0000  
G82 X-0.8900 Y1.1000  
G82 X-0.9900 Y0.8000  
G82 X-0.8900 Y0.7000  
G82 X-0.5800 Y0.7500  
G82 X-0.9900 Y0.4000  
G82 X-1.2300 Y0.4500  
G82 X-1.2300 Y0.7500  
G82 X-1.4200 Y0.8800  
G82 X-1.5200 Y0.8800  
G82 X-1.6200 Y0.8800  
G82 X-1.8300 Y1.1500  
G82 X-1.9300 Y1.1500  
G82 X-2.0300 Y1.1500  
G82 X-2.1300 Y1.1500  
G82 X-2.1300 Y1.0500  
G82 X-2.2300 Y1.1500  
G82 X-2.3300 Y1.1500  
G82 X-2.4300 Y1.1500  
G82 X-2.5600 Y1.1500  
G82 X-2.6800 Y1.2100  
G82 X-2.6800 Y1.4100  
G82 X-2.7050 Y1.5800  
G82 X-2.5600 Y1.5500  
G82 X-2.4300 Y1.4500  
G82 X-2.3300 Y1.4500  
G82 X-2.2300 Y1.4500  
G82 X-2.1300 Y1.4500  
G82 X-2.0300 Y1.4500  
G82 X-1.9300 Y1.4500  
G82 X-1.8300 Y1.4500  
G82 X-1.7200 Y1.5850  
G82 X-1.7200 Y1.6850  
G82 X-1.7200 Y1.7850  
G82 X-1.9800 Y1.8500  
G82 X-2.1000 Y1.7500  
G82 X-2.1700 Y1.8200  
G82 X-2.1300 Y1.9000  
G82 X-2.2050 Y1.9500  
G82 X-2.1300 Y2.0000  
G82 X-2.2800 Y2.1200  
G82 X-2.4300 Y2.2000  
G82 X-2.5550 Y2.2300  
G82 X-2.6300 Y2.1000  
G82 X-2.5550 Y1.9300  
G82 X-2.5700 Y1.8200  
G82 X-2.4200 Y1.6800  
G82 X-2.3050 Y1.5800  
G82 X-2.1000 Y1.5500  
G82 X-1.9800 Y1.6500  
G82 X-1.8800 Y2.1200  
G82 X-1.7200 Y2.1200  
G82 X-1.6200 Y2.1200  
G82 X-1.4300 Y2.1500  
G82 X-1.1300 Y2.1000  
G82 X-0.9800 Y2.0000  
G82 X-0.8800 Y2.0000  
G82 X-1.1300 Y1.9000  
G82 X-1.1300 Y1.7500  
G82 X-1.2800 Y1.7500  
G82 X-1.4300 Y1.7500  
G82 X-1.4300 Y1.4000  
G82 X-1.5050 Y1.3500  
G82 X-1.4300 Y1.3000  
G82 X-1.2800 Y1.3500  
G82 X-1.1300 Y1.5500  
G82 X-0.9300 Y1.6000  
G82 X-0.9300 Y1.7000  
G82 X-1.9550 Y1.0250  
G82 X-2.1300 Y0.8500  
G82 X-2.3500 Y1.0000  
G82 X-2.7500 Y1.0000  
G82 X-2.9800 Y0.5000  
G82 X-3.1800 Y0.5000  
G82 X-2.0800 Y0.5500  
G82 X-1.9550 Y0.6250  
G82 X-2.0800 Y0.1500  
G82 X-2.8200 Y1.6800  
G82 X-3.0300 Y2.1000  
G82 X-2.4300 Y2.0000  
M05
G00 Z3.0000  
G00 X0.0000  Y0.0000  
M06 T03  ; 0.0400  
G01 Z0.0000  F20    
M06 
G00 Z0.0500  
M03
G04 P0.000000
G82 X-0.4300 Y1.6500  Z-0.0730 F20    R0.0500  P0.010000
G82 X-0.5300 Y1.6500  
G82 X-0.5300 Y1.7500  
G82 X-0.4300 Y1.7500  
G82 X-0.4300 Y1.8500  
G82 X-0.4300 Y1.9500  
G82 X-0.4300 Y2.0500  
G82 X-0.5300 Y2.0500  
G82 X-0.5300 Y1.9500  
G82 X-0.5300 Y1.8500  
G82 X-0.5300 Y2.1500  
G82 X-0.4300 Y2.1500  
G82 X-0.4300 Y2.2500  
G82 X-0.5300 Y2.2500  
G82 X-0.5300 Y2.3500  
G82 X-0.4300 Y2.3500  
M05
G00 Z3.0000  
G00 X0.0000  Y0.0000  
M06 T04  ; 0.0472  
G01 Z0.0000  F20    
M06 
G00 Z0.0500  
M03
G04 P0.000000
G82 X-0.8331 Y0.1500  Z-0.0730 F20    R0.0500  P0.010000
G82 X-1.0300 Y0.1500  
G82 X-1.2269 Y0.1500  
G82 X-2.9831 Y0.1500  
G82 X-3.1800 Y0.1500  
G82 X-3.3769 Y0.1500  
M05
G00 Z3.0000  
G00 X0.0000  Y0.0000  
M06 T05  ; 0.0512  
G01 Z0.0000  F20    
M06 
G00 Z0.0500  
M03
G04 P0.000000
G82 X-0.3500 Y0.0980  Z-0.0730 F20    R0.0500  P0.010000
G82 X-0.3831 Y0.0984  
G82 X-0.4170 Y0.0980  
G82 X-0.5880 Y0.4980  
G82 X-0.5879 Y0.5315  
G82 X-0.5880 Y0.5650  
G82 X-0.4160 Y0.6180  
G82 X-0.3831 Y0.6181  
G82 X-0.3500 Y0.6180  
G82 X-1.6000 Y0.6180  
G82 X-1.6331 Y0.6181  
G82 X-1.6660 Y0.6180  
G82 X-1.8380 Y0.5650  
G82 X-1.8379 Y0.5315  
G82 X-1.8380 Y0.4980  
G82 X-1.6670 Y0.0980  
G82 X-1.6331 Y0.0984  
G82 X-1.6000 Y0.0980  
G82 X-2.5000 Y0.0980  
G82 X-2.5331 Y0.0984  
G82 X-2.5670 Y0.0980  
G82 X-2.7380 Y0.4980  
G82 X-2.7379 Y0.5315  
G82 X-2.7380 Y0.5650  
G82 X-2.5660 Y0.6180  
G82 X-2.5331 Y0.6181  
G82 X-2.5000 Y0.6180  
T01 
G00 Z1.0000  
M05
M02
